X: 12
T: Galway, The
Z: Fernando Durbán Galnares
S: https://thesession.org/tunes/38#setting46475
R: hornpipe
M: 4/4
L: 1/8
K: Dmaj
|:FE|"D" D2 FA dAFD|"A" CDEF "G" G2 FE|"D" D2 FA dcdf|"G" edcB "A" (3(ABA) (3(GFE)|
"D" D2 FA dAFD|"A" CDEF "G" G2 FG|"A" AdcB AGFE|"D" (3(DED) "A"CE "D"D2:|
|:de|"D" fefg fedc|"G" BABc B2cd|"E7" edef edcB|"A" (3ABA cea2 (3ABc|
"D" dcde fdAF|"G" GFGA BdcB|"A" AdcB AGFE|"D" (3(DED) "A"CE "D"D2:|

